_site/images/homepage/logos/visual-studio-large.svg

<svg fill="none" height="30" viewBox="0 0 29 30" width="29" xmlns="http://www.w3.org/2000/svg"><path clip-rule="evenodd" d="m28.9659 3.15273-6.7319-2.699117-11.8581 11.400887-7.16425-5.39262-2.717509 1.34819.034876 14.24623 2.717513 1.3482 7.16427-5.3927 11.858 11.4009 6.732-2.6991zm-25.04014 14.79877v-6.0347l3.36196 3.0173h.03488zm10.87484-3.0177 6.7588 5.0243v-10.04858l-6.7937 5.02428z" fill="#6e64c3" fill-rule="evenodd"/></svg>

<svg width="29" height="30" viewBox="0 0 29 30" fill="none" xmlns="http://www.w3.org/2000/svg">
<path fill-rule="evenodd" clip-rule="evenodd" d="M28.9659 3.15273L22.234 0.453613L10.3759 11.8545L3.21165 6.46188L0.494141 7.81007L0.529017 22.0563L3.24653 23.4045L10.4108 18.0118L22.2688 29.4127L29.0008 26.7136L28.9659 3.15273ZM3.92576 17.9515V11.9168L7.28772 14.9341H7.3226L3.92576 17.9515ZM14.8006 14.9338L21.5594 19.9581V9.90952L14.7657 14.9338H14.8006Z" fill="#6E64C3"/>
</svg>
